X:193
T:All The Night I Lay Awake
O:england
C:Trad
S:Northumbrian Minstrelsy
M:3/4l
K:G
e3dB2e2 dBAG| B2g2g2B2d2g2|e3dB2e2 dBAG| A2e2e2A2 c4:: B2d2 edcB dBAG|\
B2d2 edcB d2g2|B2d2 edcB dBAG| A2e2 e2A2 c4 :: G3AB2g2 dBAG| B2g2g2B2d2g2|\
G3AB2g2 dBAG| A2g2g2A2 c4::B2e2e2B2 efge | BcdB g2B2 d4| B2g2g2B2 efge|\
A2e2e2A2 c4:|


